X: 297
%
U:~=!turn!
T: Lady Georgina Campbell
C:S. D. S.
O:Scotland
B:Keith Norman MacDonald : "The Skye collection of the best reels & strathspeys extant" : 1887
Z:Ralph Palmer
R:Reel
M:C
L:1/8
K:A dorian
B | GEDE G2 Ge | dGBG dBA<B | GEDE G2 Ge | dGBG A/A/A A2 |
f | gdde g2 ga | agab agea | gdde g2 gb | agab g/g/g ga |
gdde g2 ga | agab agea | gdde gaba | gegB A/A/A A2 |]


